X: 781
T: The Athol Cummers -- Strathspey
R: strathspey
B: Robert Bremner "A Collection of Scots Reels or Country Dances" 1757 p.78 #1
S: http://imslp.org/wiki/A_Collection_of_Scots_Reels_or_Country_Dances_(Bremner,_Robert)
Z: 2013 John Chambers <jc:trillian.mit.edu>
M: C
L: 1/8
K: Em
% - - - - - - - - - - - - - - - - - - - - - - - - -
V: 1
F |\
E<EE2 E>FTB>A | E<EE2 TF>DA>F |\
E<EE2 E>FTB>A | B>dA>B TF>DA :|
|: d |\
B<E TB>A B>EE>d | B<E TB>A TF>DD>d |\
G<E TB>A d>ef>e | d/c/B/A/ dA TF>DD :|
|: f |\
e<ee2 e>fb>f | e<ee2 fda>f |\
e<ee2 e>fb>f | g>eb>e f>da>f |\
g<eb>e g>eb>e | (f/g/a) e>f d>DA :|
|: (e |\
B<E TB>A) B>EE(e | B<E TB>A) d>DD(e |\
B<ETB>A) (B<ETB>A) | (B<ETB>A) d>DD(e |\
B<ETB>A) d>ef>d | e>B d/c/B/A/ TF>DD :|
% - - - - - - - - - - - - - - - - - - - - - - - - -
V: 2 clef=bass middle=d
z |\
e2e2 e2e2 | e2e2 d2d2 |\
e2e2 e2e2 | e2e2 d2d :|\
|: z |\
e2e2 e2e2 | e2e2 d2d2 |\
e2e2 d2d2 | d2d2 d2d :|\
|: z |\
e2e2 e2e2 | e2e2 d2d2 |\
e2e2 e2e2 | e2e2 d2d2 |\
e2e2 e2e2 |
d2d2 d2d :|\
|: z |\
e2e2 e2e2 | e2e2 d2d2 |\
e2e2 e2e2 | e2e2 d2d2 |\
e2e2 d2d2 | d2d2 d2d :|
% - - - - - - - - - - - - - - - - - - - - - - - - -

%%sep 1 1 500
%%sep 1 1 500
